src/Widgets/CheckoutButtonWidget/thumbnail.svg

<svg viewBox="0 0 150 100" fill="none" xmlns="http://www.w3.org/2000/svg">
<g id="checkout">
<g id="Group" opacity="0.5">
<path id="Vector" d="M119.877 78.9466C119.701 78.9466 119.539 78.8731 119.421 78.7555L112.276 71.6101L109.394 76.5795C109.277 76.7853 109.041 76.9177 108.791 76.903C108.542 76.8883 108.336 76.7265 108.247 76.506L100.044 55.8786C99.9554 55.6433 99.9995 55.364 100.191 55.1876C100.367 55.0111 100.646 54.9523 100.882 55.0405L121.509 63.2445C121.744 63.3327 121.891 63.5532 121.906 63.7884C121.921 64.0384 121.803 64.2736 121.583 64.3912L116.613 67.2729L123.759 74.4183C123.876 74.5359 123.95 74.6976 123.95 74.874C123.95 75.0505 123.876 75.2122 123.759 75.3298C123.729 75.3592 120.318 78.7702 120.318 78.7702C120.201 78.8878 120.039 78.9613 119.862 78.9613L119.877 78.9466ZM112.144 69.934C112.305 69.934 112.482 70.0076 112.599 70.1252L119.877 77.4028C120.539 76.7412 121.744 75.5356 122.406 74.874L115.128 67.5964C114.981 67.4493 114.922 67.2582 114.952 67.0671C114.981 66.8759 115.099 66.6995 115.261 66.5966L119.804 63.9502L101.778 56.7901L108.939 74.8152L111.585 70.2722C111.688 70.0958 111.864 69.9781 112.055 69.9634C112.085 69.9634 112.114 69.9634 112.144 69.9634V69.934Z" fill="#AAAAAA"/>
</g>
<g id="Ebene_1" clip-path="url(#clip0_5_420)">
<g id="Group_2" opacity="0.75">
<path id="Vector_2" d="M124.8 40H26C24.8954 40 24 40.8954 24 42V57.92C24 59.0246 24.8954 59.92 26 59.92H124.8C125.905 59.92 126.8 59.0246 126.8 57.92V42C126.8 40.8954 125.905 40 124.8 40Z" fill="#AAAAAA"/>
<path id="Vector_3" d="M124.8 41C125.35 41 125.8 41.45 125.8 42V57.92C125.8 58.47 125.35 58.92 124.8 58.92H26C25.45 58.92 25 58.47 25 57.92V42C25 41.45 25.45 41 26 41H124.8ZM124.8 39H26C24.34 39 23 40.34 23 42V57.92C23 59.58 24.34 60.92 26 60.92H124.8C126.46 60.92 127.8 59.58 127.8 57.92V42C127.8 40.34 126.46 39 124.8 39Z" fill="#AAAAAA"/>
</g>
<path id="Checkout" d="M50.548 55.18C49.684 55.18 48.938 54.992 48.31 54.616C47.686 54.24 47.204 53.714 46.864 53.038C46.528 52.362 46.36 51.576 46.36 50.68C46.36 49.784 46.528 48.998 46.864 48.322C47.204 47.646 47.686 47.12 48.31 46.744C48.938 46.368 49.684 46.18 50.548 46.18C51.54 46.18 52.372 46.426 53.044 46.918C53.72 47.41 54.196 48.076 54.472 48.916L52.828 49.372C52.668 48.848 52.398 48.442 52.018 48.154C51.638 47.862 51.148 47.716 50.548 47.716C50 47.716 49.542 47.838 49.174 48.082C48.81 48.326 48.536 48.67 48.352 49.114C48.168 49.558 48.076 50.08 48.076 50.68C48.076 51.28 48.168 51.802 48.352 52.246C48.536 52.69 48.81 53.034 49.174 53.278C49.542 53.522 50 53.644 50.548 53.644C51.148 53.644 51.638 53.498 52.018 53.206C52.398 52.914 52.668 52.508 52.828 51.988L54.472 52.444C54.196 53.284 53.72 53.95 53.044 54.442C52.372 54.934 51.54 55.18 50.548 55.18ZM60.2091 55V51.94C60.2091 51.792 60.2011 51.604 60.1851 51.376C60.1691 51.144 60.1191 50.912 60.0351 50.68C59.9511 50.448 59.8131 50.254 59.6211 50.098C59.4331 49.942 59.1651 49.864 58.8171 49.864C58.6771 49.864 58.5271 49.886 58.3671 49.93C58.2071 49.974 58.0571 50.06 57.9171 50.188C57.7771 50.312 57.6611 50.496 57.5691 50.74C57.4811 50.984 57.4371 51.308 57.4371 51.712L56.5011 51.268C56.5011 50.756 56.6051 50.276 56.8131 49.828C57.0211 49.38 57.3331 49.018 57.7491 48.742C58.1691 48.466 58.6971 48.328 59.3331 48.328C59.8411 48.328 60.2551 48.414 60.5751 48.586C60.8951 48.758 61.1431 48.976 61.3191 49.24C61.4991 49.504 61.6271 49.78 61.7031 50.068C61.7791 50.352 61.8251 50.612 61.8411 50.848C61.8571 51.084 61.8651 51.256 61.8651 51.364V55H60.2091ZM55.7811 55V46.36H57.2331V50.8H57.4371V55H55.7811ZM66.434 55.18C65.77 55.18 65.184 55.038 64.676 54.754C64.172 54.466 63.776 54.072 63.488 53.572C63.204 53.068 63.062 52.492 63.062 51.844C63.062 51.136 63.202 50.52 63.482 49.996C63.762 49.472 64.148 49.066 64.64 48.778C65.132 48.486 65.698 48.34 66.338 48.34C67.018 48.34 67.596 48.5 68.072 48.82C68.548 49.14 68.9 49.59 69.128 50.17C69.356 50.75 69.436 51.432 69.368 52.216H67.754V51.616C67.754 50.956 67.648 50.482 67.436 50.194C67.228 49.902 66.886 49.756 66.41 49.756C65.854 49.756 65.444 49.926 65.18 50.266C64.92 50.602 64.79 51.1 64.79 51.76C64.79 52.364 64.92 52.832 65.18 53.164C65.444 53.492 65.83 53.656 66.338 53.656C66.658 53.656 66.932 53.586 67.16 53.446C67.388 53.306 67.562 53.104 67.682 52.84L69.314 53.308C69.07 53.9 68.684 54.36 68.156 54.688C67.632 55.016 67.058 55.18 66.434 55.18ZM64.286 52.216V51.004H68.582V52.216H64.286ZM73.5788 55.18C72.9068 55.18 72.3308 55.03 71.8508 54.73C71.3708 54.43 71.0028 54.022 70.7468 53.506C70.4908 52.99 70.3628 52.408 70.3628 51.76C70.3628 51.104 70.4948 50.518 70.7588 50.002C71.0268 49.486 71.4028 49.08 71.8868 48.784C72.3708 48.488 72.9428 48.34 73.6028 48.34C74.3668 48.34 75.0068 48.534 75.5228 48.922C76.0428 49.306 76.3748 49.832 76.5188 50.5L74.8868 50.932C74.7908 50.596 74.6228 50.334 74.3828 50.146C74.1468 49.958 73.8788 49.864 73.5788 49.864C73.2348 49.864 72.9528 49.948 72.7328 50.116C72.5128 50.28 72.3508 50.506 72.2468 50.794C72.1428 51.078 72.0908 51.4 72.0908 51.76C72.0908 52.324 72.2148 52.782 72.4628 53.134C72.7148 53.482 73.0868 53.656 73.5788 53.656C73.9468 53.656 74.2268 53.572 74.4188 53.404C74.6108 53.236 74.7548 52.996 74.8508 52.684L76.5188 53.032C76.3348 53.72 75.9868 54.25 75.4748 54.622C74.9628 54.994 74.3308 55.18 73.5788 55.18ZM77.7069 55L77.7189 46.36H79.3749V51.64L81.5709 48.52H83.5869L81.2469 51.76L83.7429 55H81.6189L79.3749 51.88V55H77.7069ZM87.1388 55.18C86.4868 55.18 85.9148 55.034 85.4228 54.742C84.9308 54.45 84.5468 54.048 84.2708 53.536C83.9988 53.02 83.8628 52.428 83.8628 51.76C83.8628 51.084 84.0028 50.49 84.2828 49.978C84.5628 49.462 84.9488 49.06 85.4408 48.772C85.9328 48.484 86.4988 48.34 87.1388 48.34C87.7908 48.34 88.3628 48.486 88.8548 48.778C89.3508 49.07 89.7368 49.474 90.0128 49.99C90.2888 50.502 90.4268 51.092 90.4268 51.76C90.4268 52.432 90.2868 53.026 90.0068 53.542C89.7308 54.054 89.3448 54.456 88.8488 54.748C88.3568 55.036 87.7868 55.18 87.1388 55.18ZM87.1388 53.656C87.6628 53.656 88.0528 53.48 88.3088 53.128C88.5688 52.772 88.6988 52.316 88.6988 51.76C88.6988 51.184 88.5668 50.724 88.3028 50.38C88.0428 50.036 87.6548 49.864 87.1388 49.864C86.7828 49.864 86.4908 49.944 86.2628 50.104C86.0348 50.264 85.8648 50.486 85.7528 50.77C85.6448 51.054 85.5908 51.384 85.5908 51.76C85.5908 52.34 85.7208 52.802 85.9808 53.146C86.2448 53.486 86.6308 53.656 87.1388 53.656ZM94.1583 55.192C93.6503 55.192 93.2363 55.106 92.9163 54.934C92.5963 54.762 92.3463 54.544 92.1663 54.28C91.9903 54.016 91.8643 53.742 91.7882 53.458C91.7123 53.17 91.6663 52.908 91.6503 52.672C91.6343 52.436 91.6263 52.264 91.6263 52.156V48.52H93.2823V51.58C93.2823 51.728 93.2903 51.918 93.3063 52.15C93.3223 52.378 93.3723 52.608 93.4563 52.84C93.5403 53.072 93.6763 53.266 93.8643 53.422C94.0563 53.578 94.3263 53.656 94.6743 53.656C94.8143 53.656 94.9643 53.634 95.1243 53.59C95.2843 53.546 95.4343 53.462 95.5743 53.338C95.7143 53.21 95.8283 53.024 95.9163 52.78C96.0083 52.532 96.0543 52.208 96.0543 51.808L96.9903 52.252C96.9903 52.764 96.8863 53.244 96.6783 53.692C96.4703 54.14 96.1563 54.502 95.7363 54.778C95.3203 55.054 94.7943 55.192 94.1583 55.192ZM96.2583 55V52.852H96.0543V48.52H97.6983V55H96.2583ZM103.263 55C102.815 55.084 102.375 55.12 101.943 55.108C101.515 55.1 101.131 55.026 100.791 54.886C100.455 54.742 100.199 54.512 100.023 54.196C99.8632 53.9 99.7792 53.6 99.7712 53.296C99.7632 52.988 99.7592 52.64 99.7592 52.252V46.72H101.391V52.156C101.391 52.408 101.393 52.636 101.397 52.84C101.405 53.04 101.447 53.2 101.523 53.32C101.667 53.548 101.897 53.672 102.213 53.692C102.529 53.712 102.879 53.696 103.263 53.644V55ZM98.6552 49.78V48.52H103.263V49.78H98.6552Z" fill="white"/>
<g id="Ebene_1_2" clip-path="url(#clip1_5_420)">
<path id="Vector_4" d="M40.773 46.3639C40.5528 46.0719 40.2134 45.8986 39.8464 45.8986H30.9845L28.5443 44.0736C28.3884 43.9549 28.1774 43.9823 28.0673 44.1374C27.9572 44.2926 27.9847 44.5024 28.1315 44.6119L30.5258 46.4096V53.3629C29.9479 53.518 29.5167 54.0381 29.5167 54.6586C29.5167 55.3977 30.1222 56 30.8653 56C31.4616 56 31.9753 55.6076 32.1496 55.0692H36.5255C36.6998 55.6076 37.2135 56 37.8098 56C38.5529 56 39.1584 55.3977 39.1584 54.6586C39.1584 53.9195 38.5529 53.3172 37.8098 53.3172C37.1585 53.3172 36.6172 53.7735 36.4888 54.3849H32.1955C32.0946 53.883 31.7093 53.4906 31.2139 53.3629V52.5142H38.1768C38.9015 52.5142 39.5253 52.0489 39.7363 51.3645L40.9473 47.386C41.0573 47.0301 40.9931 46.6651 40.773 46.3639ZM31.4707 54.394C31.5074 54.4761 31.535 54.5674 31.535 54.6677C31.535 54.8229 31.4799 54.9689 31.3882 55.0784C31.2689 55.2335 31.0763 55.3247 30.8745 55.3247C30.5075 55.3247 30.2139 55.0327 30.2139 54.6677C30.2139 54.4305 30.3424 54.2206 30.535 54.102C30.6359 54.0381 30.7552 54.0016 30.8745 54.0016C30.9937 54.0016 31.1221 54.0381 31.2139 54.102C31.324 54.175 31.4157 54.2754 31.4707 54.394ZM37.8098 54.0107C38.1768 54.0107 38.4703 54.3027 38.4703 54.6677C38.4703 55.0327 38.1768 55.3247 37.8098 55.3247C37.5988 55.3247 37.4154 55.2244 37.2961 55.0784C37.2044 54.9689 37.1493 54.8229 37.1493 54.6677C37.1493 54.5674 37.1677 54.4761 37.2135 54.394C37.3144 54.1659 37.553 54.0107 37.819 54.0107H37.8098ZM40.2867 47.1943L39.0758 51.1728C38.9566 51.5744 38.5896 51.839 38.1768 51.839H31.2139V46.5829H39.8372C39.984 46.5829 40.1216 46.6559 40.2134 46.7746C40.3051 46.8932 40.3326 47.0483 40.2867 47.1943Z" fill="white"/>
</g>
</g>
<g id="Group_3" opacity="0.75">
<path id="Vector_5" d="M112.188 70.0222C112.364 70.0222 112.526 70.0958 112.644 70.2134L120.039 77.6087C120.7 76.9471 121.935 75.7121 122.612 75.0358L115.216 67.6405C115.069 67.4934 115.011 67.3023 115.025 67.0965C115.04 66.8906 115.172 66.7142 115.349 66.6113L119.965 63.9208L101.661 56.6431L108.939 74.9475L111.629 70.331C111.732 70.1546 111.908 70.037 112.114 70.0075C112.144 70.0075 112.173 70.0075 112.202 70.0075L112.188 70.0222Z" fill="white" fill-opacity="0.75"/>
</g>
</g>
<defs>
<clipPath id="clip0_5_420">
<rect width="104.8" height="21.92" fill="white" transform="translate(23 39)"/>
</clipPath>
<clipPath id="clip1_5_420">
<rect width="20" height="19" fill="white" transform="translate(29 41)"/>
</clipPath>
</defs>
</svg>

<svg xmlns="http://www.w3.org/2000/svg" fill="none" viewBox="0 0 150 100"><path fill="#AAA" d="M119.877 78.947a.65.65 0 0 1-.456-.192l-7.145-7.145-2.882 4.97a.66.66 0 0 1-.603.323.63.63 0 0 1-.544-.397l-8.203-20.627a.635.635 0 0 1 .147-.691.66.66 0 0 1 .691-.148l20.627 8.205a.62.62 0 0 1 .397.543.63.63 0 0 1-.323.603l-4.97 2.882 7.146 7.145a.65.65 0 0 1 .191.456.65.65 0 0 1-.191.456l-3.441 3.44a.64.64 0 0 1-.456.191zm-7.733-9.013a.67.67 0 0 1 .455.191l7.278 7.278 2.529-2.529-7.278-7.278a.6.6 0 0 1-.176-.529.7.7 0 0 1 .309-.47l4.543-2.647-18.026-7.16 7.161 18.025 2.646-4.543a.61.61 0 0 1 .47-.309h.089z" opacity=".5"/><g clip-path="url(#a)"><g fill="#AAA" opacity=".75"><path d="M124.8 40H26a2 2 0 0 0-2 2v15.92a2 2 0 0 0 2 2h98.8a2 2 0 0 0 2-2V42a2 2 0 0 0-2-2"/><path d="M124.8 41c.55 0 1 .45 1 1v15.92c0 .55-.45 1-1 1H26c-.55 0-1-.45-1-1V42c0-.55.45-1 1-1zm0-2H26c-1.66 0-3 1.34-3 3v15.92c0 1.66 1.34 3 3 3h98.8c1.66 0 3-1.34 3-3V42c0-1.66-1.34-3-3-3"/></g><path fill="#fff" d="M50.548 55.18q-1.296 0-2.238-.564a3.8 3.8 0 0 1-1.446-1.578q-.504-1.014-.504-2.358t.504-2.358a3.8 3.8 0 0 1 1.446-1.578q.942-.564 2.238-.564 1.488 0 2.496.738 1.014.738 1.428 1.998l-1.644.456q-.24-.786-.81-1.218-.57-.438-1.47-.438-.822 0-1.374.366a2.24 2.24 0 0 0-.822 1.032q-.276.666-.276 1.566t.276 1.566.822 1.032q.552.366 1.374.366.9 0 1.47-.438t.81-1.218l1.644.456q-.414 1.26-1.428 1.998-1.008.738-2.496.738m9.661-.18v-3.06q0-.222-.024-.564a2.6 2.6 0 0 0-.15-.696 1.3 1.3 0 0 0-.414-.582q-.282-.234-.804-.234-.21 0-.45.066t-.45.258q-.21.186-.348.552-.132.366-.132.972l-.936-.444q0-.768.312-1.44t.936-1.086q.63-.414 1.584-.414.762 0 1.242.258t.744.654q.27.396.384.828.114.426.138.78t.024.516V55zm-4.428 0v-8.64h1.452v4.44h.204V55zm10.653.18q-.996 0-1.758-.426a3.15 3.15 0 0 1-1.188-1.182q-.426-.756-.426-1.728 0-1.062.42-1.848t1.158-1.218q.738-.438 1.698-.438 1.02 0 1.734.48t1.056 1.35.24 2.046h-1.614v-.6q0-.99-.318-1.422-.312-.438-1.026-.438-.834 0-1.23.51-.39.504-.39 1.494 0 .906.39 1.404.396.492 1.158.492.48 0 .822-.21a1.34 1.34 0 0 0 .522-.606l1.632.468a2.87 2.87 0 0 1-1.158 1.38 3.2 3.2 0 0 1-1.722.492m-2.148-2.964v-1.212h4.296v1.212zm9.293 2.964q-1.008 0-1.728-.45a2.97 2.97 0 0 1-1.104-1.224q-.384-.774-.384-1.746 0-.984.396-1.758a3.04 3.04 0 0 1 1.128-1.218q.726-.444 1.716-.444 1.146 0 1.92.582.78.576.996 1.578l-1.632.432a1.48 1.48 0 0 0-.504-.786 1.26 1.26 0 0 0-.804-.282q-.516 0-.846.252-.33.246-.486.678a2.8 2.8 0 0 0-.156.966q0 .846.372 1.374.378.522 1.116.522.552 0 .84-.252t.432-.72l1.668.348q-.276 1.032-1.044 1.59t-1.896.558m4.128-.18.012-8.64h1.656v5.28l2.196-3.12h2.016l-2.34 3.24L83.743 55h-2.124l-2.244-3.12V55zm9.432.18q-.978 0-1.716-.438a3.07 3.07 0 0 1-1.152-1.206q-.408-.774-.408-1.776 0-1.014.42-1.782.42-.774 1.158-1.206t1.698-.432q.978 0 1.716.438.744.438 1.158 1.212.414.768.414 1.77 0 1.008-.42 1.782a3.05 3.05 0 0 1-1.158 1.206q-.738.432-1.71.432m0-1.524q.786 0 1.17-.528.39-.534.39-1.368 0-.864-.396-1.38-.39-.516-1.164-.516-.534 0-.876.24t-.51.666a2.8 2.8 0 0 0-.162.99q0 .87.39 1.386.396.51 1.158.51m7.02 1.536q-.763 0-1.243-.258t-.75-.654a2.8 2.8 0 0 1-.378-.822 4 4 0 0 1-.138-.786 9 9 0 0 1-.024-.516V48.52h1.656v3.06q0 .222.024.57.024.342.15.69t.408.582q.288.234.81.234.21 0 .45-.066t.45-.252q.21-.192.342-.558.138-.372.138-.972l.936.444q0 .768-.312 1.44t-.942 1.086q-.624.414-1.578.414m2.1-.192v-2.148h-.205V48.52h1.644V55zm7.004 0q-.672.126-1.32.108a3.2 3.2 0 0 1-1.152-.222 1.56 1.56 0 0 1-.768-.69 2 2 0 0 1-.252-.9 41 41 0 0 1-.012-1.044V46.72h1.632v5.436q0 .378.006.684.012.3.126.48.216.342.69.372t1.05-.048zm-4.608-5.22v-1.26h4.608v1.26z"/><g clip-path="url(#b)"><path fill="#fff" d="M40.773 46.364a1.16 1.16 0 0 0-.927-.465h-8.861l-2.44-1.825a.33.33 0 0 0-.478.063.34.34 0 0 0 .064.475l2.395 1.798v6.953a1.35 1.35 0 0 0-1.01 1.296c0 .739.606 1.341 1.35 1.341.596 0 1.11-.392 1.284-.93h4.376c.174.538.688.93 1.284.93.743 0 1.348-.602 1.348-1.341 0-.74-.605-1.342-1.348-1.342-.652 0-1.193.456-1.321 1.068h-4.293a1.33 1.33 0 0 0-.982-1.022v-.849h6.963c.724 0 1.348-.465 1.56-1.15l1.21-3.978c.11-.356.046-.72-.174-1.022m-9.302 8.03a.64.64 0 0 1-.082.684.65.65 0 0 1-.514.247.656.656 0 0 1-.34-1.223c.1-.064.22-.1.34-.1.119 0 .247.036.339.1.11.073.202.173.257.292m6.339-.383a.656.656 0 1 1 0 1.314.663.663 0 0 1-.66-.657c0-.1.018-.192.064-.274a.66.66 0 0 1 .605-.383zm2.477-6.817-1.211 3.979a.93.93 0 0 1-.9.666h-6.962v-5.256h8.623a.477.477 0 0 1 .45.612"/></g></g><path fill="#fff" fill-opacity=".75" d="M112.188 70.022a.65.65 0 0 1 .456.191l7.395 7.396 2.573-2.573-7.396-7.395a.68.68 0 0 1-.191-.544.63.63 0 0 1 .324-.486l4.616-2.69-18.304-7.278 7.278 18.305 2.69-4.617a.67.67 0 0 1 .485-.324h.088z" opacity=".75"/><defs><clipPath id="a"><path fill="#fff" d="M23 39h104.8v21.92H23z"/></clipPath><clipPath id="b"><path fill="#fff" d="M29 41h20v19H29z"/></clipPath></defs></svg>
